file/marvel-studios.svg

<svg clip-rule="evenodd" fill-rule="evenodd" stroke-linejoin="round" stroke-miterlimit="1.41421" viewBox="0 0 560 400" xmlns="http://www.w3.org/2000/svg"><g fill-rule="nonzero" transform="matrix(1.03093 0 0 1.03093 73.8144 45.3093)"><path d="m394.7 106.4v3.2h-184.8v-3.2zm-184.8 87.2h184.8v-3.2h-184.8zm.1-31.7v8.9c0 7.8 3.8 11.7 11.7 11.7h2c7.9 0 11.9-3.9 11.9-11.9v-9.3c0-5.5-1.5-8.5-6.1-11.9l-8.9-6.4c-2.1-1.5-3.3-2.9-3.3-6.1v-8c0-3.3 1.5-4.8 4.8-4.8h1.3c3.3 0 4.8 1.5 4.8 4.8v5.7h7.1v-5.5c0-7.8-3.8-11.7-11.7-11.7h-1.8c-7.9 0-11.9 3.9-11.9 11.9v7.7c0 5.2 1.4 8.5 6.1 11.9l8.9 6.5c2.1 1.5 3.2 2.9 3.2 6.1v9.6c0 3.3-1.5 4.8-4.8 4.8h-1.3c-3.3 0-4.8-1.5-4.8-4.8v-9.2zm44.1 20v-57.1h9.6v-6.8h-26.5v6.8h9.6v57.1zm12.3-63.8v52.5c0 7.9 3.9 11.9 11.9 11.9h2.3c7.9 0 11.9-3.9 11.9-11.9v-52.5h-7.3v52.9c0 3.3-1.5 4.8-4.8 4.8h-1.7c-3.3 0-4.8-1.5-4.8-4.8v-52.9zm42.7 63.8h-12v-63.9h12c9.6 0 14.1 4.6 14.1 14.1v35.6c.1 9.7-4.5 14.2-14.1 14.2zm6.9-49.8c0-4.9-2.3-7.4-7.2-7.4h-4.4v50.5h4.4c4.9 0 7.2-2.5 7.2-7.4zm11.7-14v63.9h7.3v-63.9zm23.5 64.4c-7.9 0-11.9-3.9-11.9-11.9v-41.2c0-7.9 3.9-11.9 11.9-11.9h2.7c7.9 0 11.9 3.9 11.9 11.9v41.2c0 7.9-3.9 11.9-11.9 11.9zm.3-6.7h2.2c3.3 0 4.8-1.5 4.8-4.8v-42c0-3.3-1.5-4.8-4.8-4.8h-2.2c-3.3 0-4.8 1.6-4.8 4.8v42c0 3.3 1.5 4.8 4.8 4.8zm17.5-13.9v8.9c0 7.8 3.8 11.7 11.7 11.7h2c7.9 0 11.9-3.9 11.9-11.9v-9.3c0-5.5-1.5-8.5-6.1-11.9l-8.9-6.4c-2.1-1.5-3.3-2.9-3.3-6.1v-8c0-3.3 1.5-4.8 4.8-4.8h1.3c3.3 0 4.8 1.5 4.8 4.8v5.7h7.1v-5.5c0-7.8-3.8-11.7-11.7-11.7h-1.8c-7.9 0-11.9 3.9-11.9 11.9v7.7c0 5.2 1.4 8.5 6.1 11.9l8.9 6.5c2.1 1.5 3.2 2.9 3.2 6.1v9.6c0 3.3-1.5 4.8-4.8 4.8h-1.3c-3.3 0-4.8-1.5-4.8-4.8v-9.2z"/><path d="m5.3 106.4v87.3h193.7v-87.3zm164.2 23.3h-10.3v14.4h10.3v11.7h-10.3v14.6h10.3v11.5h-21.8v-57.9l-9.2 57.9h-13.4s-6.9-41-6.9-41.1c1.1 6.6-3.1 13.5-6.7 16.3l7.3 24.8h-11.3l-5.5-21.1-2.7.4v20.7h-21.8l-1.3-9.8h-9l-1.3 9.8h-22.4v-30.8l-5.2 30.8h-6.1l-5.2-30.8v30.8h-11.6v-63.9h14.6l5.1 33 5.3-33h14.6v58.7l8.8-58.7h15.3l8.5 56.7v-56.7h11.7c10.5 0 15.3 7.7 16.7 10.4l-1.3-10.4h11.7l5.3 38.9 5.3-38.9h32.4v11.7zm23.2 52.2h-21.2v-63.8h11.4v52.4h9.8zm-85.8-42.3c0 5.2-2.3 8.4-5 9.7-.9.4-1.8.6-2.7.6v-20.5h.1c.9 0 7.6.3 7.6 10.2zm-35.3-5 3.3 27.3h-6.5z" fill="#e50b14"/></g></svg>

<?xml version="1.0" encoding="UTF-8" standalone="no"?>
<!DOCTYPE svg PUBLIC "-//W3C//DTD SVG 1.1//EN" "http://www.w3.org/Graphics/SVG/1.1/DTD/svg11.dtd">
<svg width="100%" height="100%" viewBox="0 0 560 400" version="1.1" xmlns="http://www.w3.org/2000/svg" xmlns:xlink="http://www.w3.org/1999/xlink" xml:space="preserve" xmlns:serif="http://www.serif.com/" style="fill-rule:evenodd;clip-rule:evenodd;stroke-linejoin:round;stroke-miterlimit:1.41421;">
    <g transform="matrix(1.03093,0,0,1.03093,73.8144,45.3093)">
        <path id="black" d="M394.7,106.4L394.7,109.6L209.9,109.6L209.9,106.4L394.7,106.4ZM209.9,193.6L394.7,193.6L394.7,190.4L209.9,190.4L209.9,193.6ZM210,161.9L210,170.8C210,178.6 213.8,182.5 221.7,182.5L223.7,182.5C231.6,182.5 235.6,178.6 235.6,170.6L235.6,161.3C235.6,155.8 234.1,152.8 229.5,149.4L220.6,143C218.5,141.5 217.3,140.1 217.3,136.9L217.3,128.9C217.3,125.6 218.8,124.1 222.1,124.1L223.4,124.1C226.7,124.1 228.2,125.6 228.2,128.9L228.2,134.6L235.3,134.6L235.3,129.1C235.3,121.3 231.5,117.4 223.6,117.4L221.8,117.4C213.9,117.4 209.9,121.3 209.9,129.3L209.9,137C209.9,142.2 211.3,145.5 216,148.9L224.9,155.4C227,156.9 228.1,158.3 228.1,161.5L228.1,171.1C228.1,174.4 226.6,175.9 223.3,175.9L222,175.9C218.7,175.9 217.2,174.4 217.2,171.1L217.2,161.9L210,161.9ZM254.1,181.9L254.1,124.8L263.7,124.8L263.7,118L237.2,118L237.2,124.8L246.8,124.8L246.8,181.9L254.1,181.9ZM266.4,118.1L266.4,170.6C266.4,178.5 270.3,182.5 278.3,182.5L280.6,182.5C288.5,182.5 292.5,178.6 292.5,170.6L292.5,118.1L285.2,118.1L285.2,171C285.2,174.3 283.7,175.8 280.4,175.8L278.7,175.8C275.4,175.8 273.9,174.3 273.9,171L273.9,118.1L266.4,118.1ZM309.1,181.9L297.1,181.9L297.1,118L309.1,118C318.7,118 323.2,122.6 323.2,132.1L323.2,167.7C323.3,177.4 318.7,181.9 309.1,181.9ZM316,132.1C316,127.2 313.7,124.7 308.8,124.7L304.4,124.7L304.4,175.2L308.8,175.2C313.7,175.2 316,172.7 316,167.8L316,132.1ZM327.7,118.1L327.7,182L335,182L335,118.1L327.7,118.1ZM351.2,182.5C343.3,182.5 339.3,178.6 339.3,170.6L339.3,129.4C339.3,121.5 343.2,117.5 351.2,117.5L353.9,117.5C361.8,117.5 365.8,121.4 365.8,129.4L365.8,170.6C365.8,178.5 361.9,182.5 353.9,182.5L351.2,182.5ZM351.5,175.8L353.7,175.8C357,175.8 358.5,174.3 358.5,171L358.5,129C358.5,125.7 357,124.2 353.7,124.2L351.5,124.2C348.2,124.2 346.7,125.8 346.7,129L346.7,171C346.7,174.3 348.2,175.8 351.5,175.8ZM369,161.9L369,170.8C369,178.6 372.8,182.5 380.7,182.5L382.7,182.5C390.6,182.5 394.6,178.6 394.6,170.6L394.6,161.3C394.6,155.8 393.1,152.8 388.5,149.4L379.6,143C377.5,141.5 376.3,140.1 376.3,136.9L376.3,128.9C376.3,125.6 377.8,124.1 381.1,124.1L382.4,124.1C385.7,124.1 387.2,125.6 387.2,128.9L387.2,134.6L394.3,134.6L394.3,129.1C394.3,121.3 390.5,117.4 382.6,117.4L380.8,117.4C372.9,117.4 368.9,121.3 368.9,129.3L368.9,137C368.9,142.2 370.3,145.5 375,148.9L383.9,155.4C386,156.9 387.1,158.3 387.1,161.5L387.1,171.1C387.1,174.4 385.6,175.9 382.3,175.9L381,175.9C377.7,175.9 376.2,174.4 376.2,171.1L376.2,161.9L369,161.9Z" style="fill-rule:nonzero;"/>
        <path id="red" d="M5.3,106.4L5.3,193.7L199,193.7L199,106.4L5.3,106.4ZM169.5,129.7L159.2,129.7L159.2,144.1L169.5,144.1L169.5,155.8L159.2,155.8L159.2,170.4L169.5,170.4L169.5,181.9L147.7,181.9L147.7,124L138.5,181.9L125.1,181.9C125.1,181.9 118.2,140.9 118.2,140.8C119.3,147.4 115.1,154.3 111.5,157.1L118.8,181.9L107.5,181.9L102,160.8L99.3,161.2L99.3,181.9L77.5,181.9L76.2,172.1L67.2,172.1L65.9,181.9L43.5,181.9L43.5,151.1L38.3,181.9L32.2,181.9L27,151.1L27,181.9L15.4,181.9L15.4,118L30,118L35.1,151L40.4,118L55,118L55,176.7L63.8,118L79.1,118L87.6,174.7L87.6,118L99.3,118C109.8,118 114.6,125.7 116,128.4L114.7,118L126.4,118L131.7,156.9L137,118L169.4,118L169.4,129.7L169.5,129.7ZM192.7,181.9L171.5,181.9L171.5,118.1L182.9,118.1L182.9,170.5L192.7,170.5L192.7,181.9ZM106.9,139.6C106.9,144.8 104.6,148 101.9,149.3C101,149.7 100.1,149.9 99.2,149.9L99.2,129.4L99.3,129.4C100.2,129.4 106.9,129.7 106.9,139.6ZM71.6,134.6L74.9,161.9L68.4,161.9L71.6,134.6Z" style="fill:rgb(229,11,20);fill-rule:nonzero;"/>
    </g>
</svg>
